X: 9428
T: Danny Ab's
R: slide
M: 12/8
K: Gmajor
"G"B2 B "Am" cBc "G"d3 d2 e|"G" dBG dBG "D7"A3 AGA|"G"B3"Am" cBc "G"d3 d2 g|"D7"fed cBA"G" G3G3:|
"G"g2 d B2 g "Am"f2 ec3|"D7"ded c2 A "G"ded B2 d|"G"g2 d B2 g "D"f2 dc2 B|"D7"ABc def "G"g3g3:|

